client/resources/iconsets/breeze/src/svg/16x16/icon_download_zip.svg

<svg xmlns="http://www.w3.org/2000/svg" width="16" height="16"><path d="M2 1a1 1 0 0 0-1 1v12a1 1 0 0 0 1 1h12a1 1 0 0 0 1-1V2a1 1 0 0 0-1-1H2zm1 2h3v2h2V3h5v10H3V3zm5 2v2h2V5H8zm0 2H6v2h2V7zm0 2v2h2V9H8z" fill="#6d6d70"/></svg>

<svg xmlns="http://www.w3.org/2000/svg" width="16" height="16" viewBox="0 0 16 16">
 <path style="fill:#6d6d70"
       d="M 2 1 C 1.446 1 1 1.446 1 2 L 1 14 C 1 14.554 1.446 15 2 15 L 14 15 C 14.554 15 15 14.554 15 14 L 15 2 C 15 1.446 14.554 1 14 1 L 2 1 z M 3 3 L 6 3 L 6 5 L 8 5 L 8 3 L 13 3 L 13 13 L 3 13 L 3 3 z M 8 5 L 8 7 L 10 7 L 10 5 L 8 5 z M 8 7 L 6 7 L 6 9 L 8 9 L 8 7 z M 8 9 L 8 11 L 10 11 L 10 9 L 8 9 z "
       />
</svg>
